X:0715
T:Destruction of the Bastile.
M:2/4
L:1/8
Q:1/4=80
P:ABCA
N:Aird prints a da capo
I: :: :: "End" || DC
Z:Jack Campin * www.campin.me.uk * 2009
K:G
P:A
ggdd|B3 d| GGAA|(B/A/B/c/) (B/A/B/c/)|gg`````d```d    |B3         d    |GG`AF|G2G2:|
P:B
ddBB|ccA2| ddBB|(d/c/B/c/)  A2       |Bd/B/ (A/B/c/A/)|Bd/B/ (A/B/c/A/)|GG`AF|G2G2:|
P:C
K:G Minor
"^Minore"\
B2AG|d3 G|^FFGG| A^F        D2       |c3         A    |B3         G    |A2^F2|G2G2:|
<end>
<start>
